build/assets/images/icons/link.svg

<svg width="27" height="28" viewBox="0 0 27 28" fill="none" xmlns="http://www.w3.org/2000/svg">
<rect width="27" height="28" rx="13.5" fill="#E8EDF5"/>
<path d="M18.75 7.625H8.22266C7.75781 7.625 7.375 8.03516 7.375 8.52734V19C7.375 19.4922 7.75781 19.875 8.22266 19.875H18.75C19.2148 19.875 19.625 19.4922 19.625 19V8.52734C19.625 8.03516 19.2148 7.625 18.75 7.625ZM11.0664 18.125H9.26172V12.3008H11.0664V18.125ZM10.1641 11.4805C9.5625 11.4805 9.09766 11.0156 9.09766 10.4414C9.09766 9.86719 9.5625 9.375 10.1641 9.375C10.7383 9.375 11.2031 9.86719 11.2031 10.4414C11.2031 11.0156 10.7383 11.4805 10.1641 11.4805ZM17.875 18.125H16.043V15.2812C16.043 14.625 16.043 13.75 15.1133 13.75C14.1562 13.75 14.0195 14.4883 14.0195 15.2539V18.125H12.2148V12.3008H13.9375V13.0938H13.9648C14.2109 12.6289 14.8125 12.1367 15.6875 12.1367C17.5195 12.1367 17.875 13.3672 17.875 14.9258V18.125Z" fill="#17479E"/>
</svg>

<svg width="27" height="28" fill="none" xmlns="http://www.w3.org/2000/svg"><rect width="27" height="28" rx="13.5" fill="#E8EDF5"/><path d="M18.75 7.625H8.223c-.465 0-.848.41-.848.902V19c0 .492.383.875.848.875H18.75a.881.881 0 00.875-.875V8.527c0-.492-.41-.902-.875-.902zm-7.684 10.5H9.262v-5.824h1.804v5.824zm-.902-6.645c-.601 0-1.066-.464-1.066-1.039 0-.574.464-1.066 1.066-1.066.574 0 1.04.492 1.04 1.066a1.04 1.04 0 01-1.04 1.04zm7.711 6.645h-1.832v-2.844c0-.656 0-1.531-.93-1.531-.957 0-1.093.738-1.093 1.504v2.871h-1.805v-5.824h1.723v.793h.027c.246-.465.848-.957 1.723-.957 1.832 0 2.187 1.23 2.187 2.789v3.199z" fill="#17479E"/></svg>
